X:534
T:Johnny Murray of Lochee
S:Claire McLaughlin, Edinburgh 9/4/03
Z:Nigel Gatherer
M:4/4
L:1/8
K:A
F | EAAG  A2 AF | EAAG AcBA | FBBA  B2 Bc | dcBA GBAF |
    EAAG  A2 AF | EAAG AcBA | d2 cB cecA  | GBed cAA :|
B | c2 cB cAAB  | cAeA cAAc | d2 dc dcBA  | GBgf edcB |
    c2 cB cAAB  | cAeA cAAc | d2 cB cecA  | GBed cAA :|
